resources/svg/zoom-in.svg

<svg width="15" height="15" viewBox="0 0 15 15" fill="none" xmlns="http://www.w3.org/2000/svg">
<path fill-rule="evenodd" clip-rule="evenodd" d="M0 6.5C0 2.91015 2.91015 0 6.5 0C10.0899 0 13 2.91015 13 6.5C13 8.11495 12.411 9.59234 11.4362 10.7291L14.8536 14.1465L14.1465 14.8536L10.7291 11.4362C9.59234 12.411 8.11495 13 6.5 13C2.91015 13 0 10.0899 0 6.5ZM6 9V7H4V6H6V4H7V6H9V7H7V9H6Z" fill="black"/>
</svg>

<svg viewBox="0 0 15 15" fill="none" xmlns="http://www.w3.org/2000/svg" fill="currentColor"><path fill-rule="evenodd" clip-rule="evenodd" d="M0 6.5a6.5 6.5 0 1111.436 4.23l3.418 3.416-.707.708-3.418-3.418A6.5 6.5 0 010 6.5zM6 9V7H4V6h2V4h1v2h2v1H7v2H6z" fill="currentColor"/></svg>
